X:1
T:Congress (reel), The
M:4/4
L:1/8
R: reel
O:Trad. (26.11.2014/NS)
K:Ador
|:"Am"eAAG ABcd|eaaf gedg|eAA2 eAcA|"G"BGGA BABd|
"Am"eAAG ABcd|eaaf gedB|"G"cBcd eged|cABG "Am"A2Bd:|
|:"Am"eaag a2ag|eaag e2d2|"G"egdg egdg|eaaf gedg|
"F"eaag a2ag|eaaf gedB|"G"c2cd eged|cABG "Am"A2Bd:|
